X: 11205
T: Dunphy's
R: hornpipe
M: 4/4
K: Gmajor
|:(3DEF|GDGA B<Ggf|feed ecA<G|F2DF ABcA|(3BdB (3ABA (3FAF (3DEF|
GDGA B<Ggf|feed ecA<G|FAdB cAFG|AGGF G2:|
|:Bc|dBGB gdBd|g/g/g ba gdBd|g/g/g f2 edcd|edd^c d2 ba|
g2 dc BGGB|ecA<G F2 (3DEF|GBdB cAFG|AGGF G2:|

